icons/icn_punto.svg

<svg width="24" xmlns="http://www.w3.org/2000/svg" height="24" id="screenshot-a692a29b-b9de-80cb-8006-a15bfe47d578" viewBox="0 0 24 24" xmlns:xlink="http://www.w3.org/1999/xlink" fill="none" version="1.1"><g id="shape-a692a29b-b9de-80cb-8006-a15bfe47d578"><g class="frame-container-wrapper"><g class="frame-container-blur"><g class="frame-container-shadows"><g fill="none"><g class="fills" id="fills-a692a29b-b9de-80cb-8006-a15bfe47d578"><rect rx="0" ry="0" x="0" y="0" width="24" height="24.000000000000455" transform="matrix(1, 0, 0, 1, 0, 0)" class="frame-background"/></g><g class="frame-children"><g id="shape-a692a29b-b9de-80cb-8006-a15bf049172d" rx="0" ry="0"><g id="shape-a692a29b-b9de-80cb-8006-a15ba35c3667" style="opacity: 1;"><g class="fills" id="fills-a692a29b-b9de-80cb-8006-a15ba35c3667"><path d="M12.117968559265137,3.4510498046875C15.179736137390137,3.4510498046875,17.516895294189453,6.35400390625,17.498584747314453,8.83984375C17.464405059814453,11.4451904296875,16.008350372314453,14.4630126953125,14.516161918640137,16.791015625C13.320361137390137,18.65771484375,12.562792778015137,19.4775390625,12.139208793640137,19.9647216796875C11.717577934265137,19.3917236328125,10.838183403015137,18.2457275390625,9.547411918640137,16.1405029296875C8.762011528015137,14.8587646484375,7.979540824890137,13.463623046875,7.407519340515137,12.1778564453125C6.834521293640137,10.8919677734375,6.492968559265137,9.69287109375,6.500536918640137,8.9510498046875C6.538378715515137,5.4990234375,8.945605278015137,3.4510498046875,12.117968559265137,3.4510498046875ZM12.117968559265137,1.9530029296875C8.256396293640137,1.9530029296875,5.045214653015137,4.75390625,5.001025199890137,8.935791015625C4.988085746765137,10.1021728515625,5.419970512390137,11.404052734375,6.033495903015137,12.7830810546875C6.647997856140137,14.162109375,7.464648246765137,15.606689453125,8.272021293640137,16.9239501953125C9.886767387390137,19.558349609375,11.497118949890137,21.6990966796875,11.497118949890137,21.6990966796875C11.778368949890137,22.0810546875,12.338671684265137,22.1097412109375,12.657031059265137,21.7576904296875C12.657031059265137,21.7576904296875,14.213671684265137,20.044189453125,15.778613090515137,17.603515625C23.461231231689453,5.61572265625,14.969286918640137,1.9530029296875,12.117968559265137,1.9530029296875Z" style="display: inline; stroke-linecap: round; stroke-linejoin: round; fill: rgb(0, 0, 0); fill-opacity: 1;"/></g></g><g id="shape-a692a29b-b9de-80cb-8006-a15ba35c855a" style="opacity: 1;"><g class="fills" id="fills-a692a29b-b9de-80cb-8006-a15ba35c855a"><path d="M12.028613090515137,6.404296875C12.896777153015137,6.404296875,13.586962699890137,7.093505859375,13.586962699890137,7.9627685546875C13.586962699890137,8.8319091796875,12.897753715515137,9.5194091796875,12.028613090515137,9.5194091796875C11.159228324890137,9.5194091796875,10.471972465515137,8.8319091796875,10.471972465515137,7.9627685546875C10.471972465515137,7.093505859375,11.159228324890137,6.404296875,12.028613090515137,6.404296875ZM12.028613090515137,4.8983154296875C10.348193168640137,4.8983154296875,8.973437309265137,6.282958984375,8.973437309265137,7.9627685546875C8.973437309265137,9.642578125,10.348193168640137,11.0174560546875,12.028613090515137,11.0174560546875C13.707812309265137,11.0174560546875,15.084521293640137,9.642578125,15.084521293640137,7.9627685546875C15.084521293640137,6.282958984375,13.707812309265137,4.8983154296875,12.028613090515137,4.8983154296875Z" style="display: inline; stroke-linecap: round; stroke-linejoin: round; fill: rgb(0, 0, 0); fill-opacity: 1;"/></g></g></g></g></g></g></g></g></g></svg>

<svg fill="none" viewBox="0 0 24 24"><g class="frame-container-wrapper"><g class="frame-container-blur"><g class="frame-container-shadows"><g class="fills"><rect width="24" height="24" class="frame-background" rx="0" ry="0"/></g><g class="frame-children"><path fill="#000" d="M12.118 3.451c3.0617 0 5.3989 2.903 5.3806 5.3888-.0342 2.6054-1.4902 5.6232-2.9824 7.9512-1.1958 1.8667-1.9534 2.6865-2.377 3.1737-.4216-.573-1.301-1.719-2.5918-3.8242-.7854-1.2817-1.5679-2.6769-2.1399-3.9626-.573-1.286-.9145-2.485-.907-3.2269.0379-3.452 2.4451-5.5 5.6175-5.5Zm0-1.498c-3.8616 0-7.0728 2.801-7.117 6.9828-.013 1.1664.419 2.4683 1.0325 3.8473.6145 1.379 1.4311 2.8236 2.2385 4.1409 1.6148 2.6343 3.2251 4.7751 3.2251 4.7751.2813.382.8416.4106 1.16.0586 0 0 1.5566-1.7135 3.1215-4.1542C23.4612 5.6157 14.9693 1.953 12.118 1.953Z" class="fills"/><path fill="#000" d="M12.0286 6.4043c.8682 0 1.5584.6892 1.5584 1.5585 0 .8691-.6892 1.5566-1.5584 1.5566-.8694 0-1.5566-.6875-1.5566-1.5566 0-.8693.6872-1.5585 1.5566-1.5585Zm0-1.506c-1.6804 0-3.0552 1.3847-3.0552 3.0645 0 1.6798 1.3748 3.0547 3.0552 3.0547 1.6792 0 3.056-1.375 3.056-3.0547 0-1.6798-1.3768-3.0645-3.056-3.0645Z" class="fills"/></g></g></g></g></svg>
